src/icons/alert.svg

<svg xmlns="http://www.w3.org/2000/svg" width="512" height="512" viewBox="0 0 512 512">
    <path d="M301.7 409.5h-91.4v-68.6h91.4v68.6zm-11.4-114.3h-68.6L210.3 89.5h91.4l-11.4 205.7z"/>
</svg>

<?xml version="1.0" encoding="UTF-8"?>
<svg width="512px" height="512px" viewBox="0 0 512 512" version="1.1" xmlns="http://www.w3.org/2000/svg" xmlns:xlink="http://www.w3.org/1999/xlink">
    <!-- Generator: Sketch 62 (91390) - https://sketch.com -->
    <title>alert</title>
    <desc>Created with Sketch.</desc>
    <g id="alert" stroke="none" stroke-width="1" fill="none" fill-rule="evenodd">
        <path d="M301.7,409.5 L210.3,409.5 L210.3,340.9 L301.7,340.9 L301.7,409.5 Z M290.3,295.2 L221.7,295.2 L210.3,89.5 L301.7,89.5 L290.3,295.2 L290.3,295.2 Z" id="Shape" fill="#000000" fill-rule="nonzero"></path>
    </g>
</svg>
